app/dist/common/images/edag-engineering-ag.svg

<svg height="18" viewBox="0 0 18 18" width="18" xmlns="http://www.w3.org/2000/svg"><path d="m0 0h18v18h-18z" fill="#f0f3fa"/><g fill="#455662"><path d="m6.2 8.25h4.8l-.2 1.5h-4.8zm1.03-4.25h5.77l-.23 1.52h-5.77zm-1.03 8.57h4.8l-.2 1.43h-4.8z"/><path d="m13.13 12h-9.13 9.13l.87-6h-9.13l-.21 1.5h7.8l-.56 3h-7.62l-.28 1.5"/></g></svg>

<!-- by TradingView --><svg width="18" height="18" viewBox="0 0 18 18" xmlns="http://www.w3.org/2000/svg"><path fill="#F0F3FA" d="M0 0h18v18H0z"/><path d="M6.2 8.25H11l-.2 1.5H6l.2-1.5ZM7.23 4H13l-.23 1.52H7L7.23 4ZM6.2 12.57H11L10.8 14H6l.2-1.43Z" fill="#455662"/><path d="M13.13 12H4h9.13L14 6H4.87l-.21 1.5h7.8l-.56 3H4.28L4 12" fill="#455662"/></svg>
